modules/themify-icons/icons/video-camera.svg

<?xml version="1.0" encoding="utf-8"?>
<!-- Generated by IcoMoon.io -->
<!DOCTYPE svg PUBLIC "-//W3C//DTD SVG 1.1//EN" "http://www.w3.org/Graphics/SVG/1.1/DTD/svg11.dtd">
<svg version="1.1" xmlns="http://www.w3.org/2000/svg" xmlns:xlink="http://www.w3.org/1999/xlink" width="17" height="17" viewBox="0 0 17 17">
<g>
</g>
	<path d="M12.991 6.75v-2.25c0-0.827-0.678-1.5-1.512-1.5h-7.479v-0.5c0-0.276 0.225-0.5 0.5-0.5h5.541v-1h-5.541c-0.827 0-1.5 0.673-1.5 1.5v0.5h-1.488c-0.834 0-1.512 0.673-1.512 1.5v2.001c0 0.827 0.678 1.5 1.512 1.5h0.504v5.499c0 0.827 0.673 1.5 1.5 1.5h7.964c0.834 0 1.512-0.673 1.512-1.5v-2.251l4.008 2.783v-10.065l-4.009 2.783zM16 12.121l-4.009-2.783v4.162c0 0.276-0.229 0.5-0.512 0.5h-7.963c-0.275 0-0.5-0.224-0.5-0.5v-6.499h-1.504c-0.283 0-0.512-0.224-0.512-0.5v-2.001c0-0.276 0.229-0.5 0.512-0.5h9.968c0.282 0 0.512 0.224 0.512 0.5v4.163l4.008-2.784v6.242z" fill="#000000" />
</svg>

<svg xmlns="http://www.w3.org/2000/svg" width="17" height="17"><path d="M12.991 6.75V4.5c0-.827-.678-1.5-1.512-1.5H4v-.5a.5.5 0 0 1 .5-.5h5.541V1H4.5C3.673 1 3 1.673 3 2.5V3H1.512C.678 3 0 3.673 0 4.5v2.001c0 .827.678 1.5 1.512 1.5h.504V13.5c0 .827.673 1.5 1.5 1.5h7.964c.834 0 1.512-.673 1.512-1.5v-2.251L17 14.032V3.967L12.991 6.75zM16 12.121l-4.009-2.783V13.5c0 .276-.229.5-.512.5H3.516a.5.5 0 0 1-.5-.5V7.001H1.512a.506.506 0 0 1-.512-.5V4.5c0-.276.229-.5.512-.5h9.968c.282 0 .512.224.512.5v4.163L16 5.879v6.242z"/></svg>
